X:68
T:Capachine,The. JJo.068
S:J.Jones MS,1801,N.Shrops.
A:N Shropshire
Z:Neil Brookes
M:6/8
L:1/8
Q:3/8=120
K:F
f2f fef|g2g g2b|a2f fef|gec cde|!
f2f fef|g2g g2b|aga geg|f2ff2::!
g|a2a afa|b2b bgb|a2a afa|gec c3|!
a2a afa|b2b bgb|aga geg|f2ff2:|

